src/pos-icons/currency-try.svg

<svg height="24" viewBox="0 0 24 24" width="24" xmlns="http://www.w3.org/2000/svg"><path d="m19 12a9 9 0 0 1 -9 9h-2v-8.23l-3 1.1v-2.13l3-1.1v-1.77l-3 1.09v-2.12l3-1.1v-3.74h2v3l5-1.8v2.12l-5 1.82v1.78l5-1.82v2.13l-5 1.82v6.95a7 7 0 0 0 7-7z"/></svg>

<?xml version="1.0" encoding="UTF-8"?><!DOCTYPE svg PUBLIC "-//W3C//DTD SVG 1.1//EN" "http://www.w3.org/Graphics/SVG/1.1/DTD/svg11.dtd"><svg xmlns="http://www.w3.org/2000/svg" xmlns:xlink="http://www.w3.org/1999/xlink" version="1.1" id="mdi-currency-try" width="24" height="24" viewBox="0 0 24 24"><path d="M19,12A9,9 0 0,1 10,21H8V12.77L5,13.87V11.74L8,10.64V8.87L5,9.96V7.84L8,6.74V3H10V6L15,4.2V6.32L10,8.14V9.92L15,8.1V10.23L10,12.05V19A7,7 0 0,0 17,12H19Z" /></svg>
